X:5
T:Molly Set The Kettle On. Le4.005
B:L.Leadley MS#4 c1850
Z:Village Music Project, 2016 Steve Mansfield
M:4/4
L:1/8
Q:2/4=75
N: c2A2A2 in Mss
N:** D2 in Mss
K:D
abag fddf | gfed "*"cAA2 | ac'ag fddA | B2c2 "**"d4 :|
|: fege fddf | gfed "*"cAA2 | fdge fddA | B2c2 "**"d4 :|

